X: 59
T: Pollonesse #59
M: 3/4
L: 1/16
K: F
Q:110
f2af c2dc B2cB|A2A2 cBAB c4|f2af c2dc B2cB|A2A2 cBAB c4|d3B f2fd B2Bd|
c2cB A2AB c4|d3e f2fd B2Bd|c2cB A2AB c4|a2f2 b2g2 fedc|cdef g4f4:|
|:g2ga g2ef gfed|c2cd e2ef g2ga|g2ga gfef gfed|c2cd c2cd c4:|

